X:1
T:Title
%%score 1 ( 2 3 )
L:1/8
Q:1/4=110
M:4/4
K:Bb
V:1 treble nm="Grand Piano, Soprano"
V:2 bass nm="Choir Pad, Christmas Bells Peal Merrily"
V:3 bass 
V:1
 [DF]2 [DB]2 [EB]2 [FB]2 | [DB]2 [EG]2 [EG]2 [DF]2 | [DF]2 [DB]4 [Fc]2- | [Fc]2 [Fd]4 [Fc]2 | %4
w: By~Elisha~Albright~Hoffman,~1894 * * *||||
 [DF]2 [DB]2 [EB]2 [FB]2 | [DB]2 [EG]2 [EG]2 [DF]2 | [DF]2 [FB]4 [EA]2- | [EA]2 [DB]6 | %8
w: ||||
 z2 [DB]2 [EB]2 F2 | [DF]2 [EG]2 [EG]2 [DF]2 | [DF]2 [FB]2 [DB]2 [Fc]2 | [Fc]2 [Fd]2 [Fd]2 [Fc]2- | %12
w: ||||
 [Fc]2 [DB]2 [EB]2 F2 | [DF]2 [EG]2 [EG]2 [DF]2 | [DF]2 [FB]2 [FB]2 [EA]2 | [EA]2 [DB]6- | %16
w: ||||
 [DB]2 z2 z4 |] %17
w: |
V:2
 [B,,B,]2 [B,,B,]2 [C,B,]2 [D,B,]2 | [B,,B,]2 [E,B,]2 [B,,B,]2 [B,,B,]2 | %2
 [B,,B,]2 B,2- [G,B,]2 [F,A,]2- | [F,A,]2 B,4 [F,A,]2 | [B,,B,]2 [B,,B,]2 [C,B,]2 [D,B,]2 | %5
 [B,,B,]2 [E,B,]2 [B,,B,]2 [B,,B,]2 | [B,,B,]2 [F,D]4 [F,C]2- | [F,C]2 [B,,B,]6 | %8
 z2 [B,,B,]2 [C,B,]2 [D,B,]2 | [B,,B,]2 [E,B,]2 [G,B,]2 B,2 | [B,,B,]2 [D,B,]2 [G,B,]2 [F,A,]2 | %11
 [F,A,]2 B,2 [D,B,]2 [F,A,]2- | [F,A,]2 [B,,B,]2 [C,B,]2 [D,B,]2 | [B,,B,]2 [E,B,]2 [G,B,]2 B,2 | %14
 [B,,B,]2 [F,D]2 [F,D]2 [F,C]2 | [F,C]2 [B,,B,]6- | [B,,B,]2 z2 z4 |] %17
V:3
 x8 | x8 | z2 B,,2 z4 | x8 | x8 | x8 | x8 | x8 | x8 | x8 | x8 | x8 | x8 | x8 | x8 | x8 | x8 |] %17

